icon/fa/arrow-pointer.svg

<svg xmlns="http://www.w3.org/2000/svg" viewBox="0 0 320 512"><!--! Font Awesome Free 6.1.2 by @fontawesome - https://fontawesome.com License - https://fontawesome.com/license/free (Icons: CC BY 4.0, Fonts: SIL OFL 1.1, Code: MIT License) Copyright 2022 Fonticons, Inc.--><path d="M23.19 32c5.67 0 11.15 2.08 15.4 5.86L312.6 281.4c4.7 4.2 7.4 10.2 7.4 16.5 0 12.2-9.9 22.1-22.1 22.1H179.8l56.8 113.7c7.9 15.8 1.5 35-14.3 42.9-15.8 7.9-35 1.5-42.9-14.3L121.2 346l-82.62 94.5c-4.18 4.8-10.22 7.5-16.57 7.5C9.855 448 0 438.1 0 425.1V55.18C0 42.38 10.38 32 23.18 32h.01z"/></svg>

<svg xmlns="http://www.w3.org/2000/svg" viewBox="0 0 320 512" height="1em" width="1em">
<!--! Font Awesome Free 6.1.2 by @fontawesome - https://fontawesome.com License - https://fontawesome.com/license/free (Icons: CC BY 4.0, Fonts: SIL OFL 1.1, Code: MIT License) Copyright 2022 Fonticons, Inc.-->
  <path d="M23.19 32C28.86 32 34.34 34.08 38.59 37.86L312.6 281.4C317.3 285.6 320 291.6 320 297.9C320 310.1 310.1 320 297.9 320H179.8L236.6 433.7C244.5 449.5 238.1 468.7 222.3 476.6C206.5 484.5 187.3 478.1 179.4 462.3L121.2 346L38.58 440.5C34.4 445.3 28.36 448 22.01 448C9.855 448 0 438.1 0 425.1V55.18C0 42.38 10.38 32 23.18 32H23.19z"/>
</svg>
